X:1
T:Va-t-en, regret
T:Loyset Compere
T:Va-t-en, regret
C:Loyset Compere
%%score [ 1 2 3 ]
L:1/8
Q:1/4=240
M:4/2
K:F
V:1 treble nm="Soprano" snm="S"
V:2 treble-8 nm="Tenor" snm="T"
V:3 bass nm="Bass" snm="B"
V:1
 z16 | z8 F8 | F8 F8 | G16 | G8 A8 | A4 A8 A4 | B8 A4 G4- | G2 F2 F8 E4 | F16- | F8 z8 | A8 A8 | %11
w: |Va-|t~en, re-|gret,|va, quit-|te ma de-|meu- * *||re,|_|va- t~en,|
 A8 G8- | G8 A6 B2 | c4 d8 c2 B2 | A4 G4 c8 | c2 B2 A2 G2 F4 B4- | B2 A2 A8 G4 | A16- | A8 z8 | %19
w: re- gret,|_ et _|que ce _ _|soit _ sur|l'heu- * * * * *||re,|_|
 A8 A8 | A8 G8- | G4 G4 A4 B2 c2 | d4 c8 B4 | A4 G2 F2 E4 A4- | A4 G4 F4 G4- | G2 F2 F8 E4 | F16 | %27
w: tous mes|re- grets|_ et les _ _|_ sou- *|* * * * pirs|_ _ _ _|* * du _|coeur|
 z16 | A8 A8 | A8 G8 | z4 d6 c2 c4- | c4 =B4 c8- | c4 B2 A2 A4 G2 F2 | E8 z4 D4- | %34
w: |ne peu-|vent rien|dans _ mon|_ _ tris-|* * * te mal- *|heur, dans|
 D2 E2 F2 G2 A4 B4- | B2 A2 G8 ^F4 | G16 | z8 A8 | A8 G8 | F8 z8 | B8 A4 A4 | G4 G4 F4 _E2 D2 | %42
w: _ _ _ _ mon tris-|* * te mal-|heur,|j'es-|pe- re~en|Dieu,|et je se-|che mes pleurs, _ _|
 C2 D2 E2 F2 G2 A2 B4 | A4 G2 F2 E2 F2 G2 A2 | G2 F2 F8 E4 | F16 |] %46
w: _ _ _ _ _ _ _|mes _ _ _ _ _ _|_ _ _ _|pleurs.|
V:2
 c8 c8 | c8 d8- | d8 d8 | e8 e4 e4- | e4 e4 f8- | f4 e2 d2 c4 B2 A2 | G8 F4 c4 | A4 F4 G8 | F16 | %9
w: Va- t~en,|re- gret,|_ va,|quit- te ma|_ de- meu-||||re,|
 z8 F8 | F8 F8 | c16 | e8 f8- | f8 d8 | c16 | _e8 d8 | c4 A4 B8 | A16 | z8 d8 | d8 d8 | c16 | %21
w: va-|t~en, re-|gret,|et que|_ ce|soit|sur l'heu-||re,|tous|mes re-|grets|
 e8 f8- | f2 e2 d2 c2 d8 | z4 c8 B2 A2 | B8 A4 c4 | B2 A2 G2 F2 G8 | F8 z8 | F8 F8 | F8 c8- | %29
w: et les|_ _ _ _ _|sou- * *|* * pirs|_ _ _ _ du|coeur|ne peu-|vent rien|
 c4 d4 e8 | f8 e6 c2 | d4 d4 c8- | c16- | c8 d8- | d4 d6 c2 B2 A2 | G4 B4 A8 | G6 A2 B4 c4- | %37
w: _ _ dans|mon tris- *|te mal- heur,|_|* dans|_ mon _ _ _|_ _ tris-|te _ _ mal-|
 c2 B2 A2 G2 F8- | F8 z8 | A8 A8 | G8 F8 | z8 B8 | A4 A4 G4 G4 | F4 E2 D2 C4 c4 | %44
w: * * * * heur,|_|j'es- pe-|re~en Dieu,|et|je se- che mes|pleurs, _ _ _ je|
 B2 A2 G2 F2 G4 G4 | F16 |] %46
w: se- * * * che mes|pleurs.|
V:3
 C,8 F,8 | E,8 D,8- | D,8 D,8 | C,8 C,4 G,4- | G,4 G,4 F,8 | F,8 z4 F,4- | F,4 E,4 F,4 C,4 | %7
w: Va- t~en,|re- gret,|_ va,|quit- te ma|_ de- meu-|re, quit-|* te ma de-|
 D,8 C,8 | z8 F,8 | F,4 F,4 F,2 G,2 A,2 B,2 | C8- C2 B,2 A,2 G,2 | F,8 E,4 C,4 | G,8 F,8- | %13
w: meu- re,|va-|t~en, re- gret, _ _ _|_ _ _ _ _|* et que|ce soit|
 F,8 B,,8 | F,4 _E,4 C,8 | z4 C,4 D,4 B,,4 | F,8 G,8 | D,8 z8 | D,8 D,8 | D,8 D,4 F,4- | %20
w: _ sur|l'heu- * re,|ce soit sur|l'heu- *|re,|tous mes|re- grets _|
 F,2 E,2 F,4 E,4 C,4 | G,8 F,4 G,2 A,2 | B,4 A,4 G,8 | F,4 A,8 G,2 F,2 | G,8 D,4 E,4 | %25
w: _ _ _ _ _|et les _ _|_ _ sou-|* pirs _ _|_ du _|
 F,4 D,4 C,8 | z4 F,4 F,4 F,4 | F,2 G,2 A,2 B,2 C8- | C2 B,2 A,2 G,2 F,8- | F,8 E,8 | %30
w: _ _ coeur|ne peu- vent|rien _ _ _ _|_ _ _ _ dans|_ _|
 D,6 F,2 G,4 A,4 | G,8 C,6 D,2 | E,4 F,8 E,2 D,2 | C,8 B,,4 B,,4 | B,,2 C,2 D,2 E,2 F,4 G,4- | %35
w: mon _ _ _|tris- te _|_ mal- * *|heur, dans mon|tris- * * * * te|
 G,2 F,2 G,4 D,8 | z4 G,6 F,2 E,2 D,2 | C,4 C6 B,2 A,2 G,2 | F,4 D,4 E,8 | D,8 C,4 F,4- | %40
w: _ _ mal- heur,|j'es- * * *|* pe- * * *|re en Dieu,|et je se-|
 F,4 E,4 F,4 D,4 | _E,6 D,2 B,,8 | z8 B,8 | C4 F,4 G,4 C,4 | D,8 C,8 | F,16 |] %46
w: * * che mes|pleurs, _ _|et|je se- * che|mes _|pleurs.|

